symbolic/22x22/apps/visual-studio-code-insiders.svg

<svg xmlns="http://www.w3.org/2000/svg" width="22" height="22" version="1">
 <path style="opacity:0.2" d="M 20.292625,3.6189527 16.174318,1.624551 C 15.697659,1.3936981 15.127935,1.4910772 14.753791,1.8673587 L 1.2718864,14.081077 c -0.36262928,0.332572 -0.36221228,0.906777 9e-4,1.238799 l 1.1012451,1.0069 c 0.2968629,0.271478 0.7439376,0.291423 1.0635598,0.0476 L 19.672931,4.1363479 c 0.544663,-0.4155911 1.32699,-0.02485 1.32699,0.6627739 v -0.0481 c 0,-0.4826805 -0.274907,-0.9226864 -0.707296,-1.1320745 z"/>
 <path style="opacity:0.2" d="m 16.174552,21.376175 c -0.476815,0.230638 -1.046539,0.133183 -1.420683,-0.243128 0.460965,0.463636 1.249226,0.135229 1.249226,-0.52049 V 2.3876234 c 0,-0.655719 -0.788261,-0.984111 -1.249226,-0.5204453 0.374144,-0.3763115 0.943868,-0.4738306 1.420683,-0.2431827 l 4.117605,1.9916617 C 20.724857,3.8249352 21,4.2651012 21,4.7479918 V 18.252283 c 0,0.482876 -0.275143,0.923032 -0.707843,1.13231 z"/>
 <path style="fill:#007c64" d="M 20.292625,3.1187882 16.174318,1.1243865 C 15.697659,0.8935336 15.127935,0.9909127 14.753791,1.3671942 L 1.2718864,13.580913 c -0.36262928,0.332572 -0.36221228,0.906776 9e-4,1.238798 l 1.1012451,1.006901 c 0.2968629,0.271477 0.7439376,0.291422 1.0635598,0.0476 L 19.672931,3.6361834 c 0.544663,-0.4155911 1.32699,-0.02485 1.32699,0.662774 v -0.0481 c 0,-0.4826806 -0.274907,-0.9226865 -0.707296,-1.1320746 z"/>
 <path style="opacity:0.1;fill:#ffffff" d="m 15.614307,1.0001876 c -0.316167,0.00524 -0.626504,0.1320082 -0.860344,0.3671841 L 1.2716649,13.581127 c -0.248739,0.228122 -0.32226618,0.5688 -0.2294901,0.868157 0.042456,-0.13619 0.1162922,-0.264346 0.2294901,-0.368162 L 14.753963,1.8673671 c 0.374144,-0.3762815 0.943251,-0.4740147 1.419909,-0.2431618 l 3.846645,1.8632642 C 20.499773,3.3964619 21,3.7487432 21,4.2989854 v -0.04785 C 21,3.7684538 20.725364,3.3277203 20.292975,3.1183322 L 16.173872,1.1242099 C 15.995125,1.03764 15.804007,0.9970435 15.614307,1.0001876 Z"/>
 <path style="opacity:0.2" d="m 2.8976266,6.0069777 c -0.1888294,0.00844 -0.3750012,0.081076 -0.5234327,0.216795 L 1.2726415,7.2305995 C 0.90952912,7.5626115 0.90903562,8.1372987 1.2716665,8.4698457 L 14.753963,21.132816 c 0.460965,0.463636 1.249012,0.135216 1.249012,-0.520503 V 15.996144 L 3.4376607,6.1759212 C 3.2778495,6.0539853 3.0864558,5.9985358 2.8976266,6.0069777 Z"/>
 <path style="fill:#00a388" d="m 20.292625,18.881459 -4.118307,1.994407 c -0.476659,0.230798 -1.046383,0.133419 -1.420527,-0.242813 L 1.2718864,7.9692738 c -0.36262928,-0.332547 -0.36221228,-0.9067767 9e-4,-1.2387887 L 2.3740315,5.7235443 C 2.6708944,5.4521068 3.1179691,5.432122 3.4375913,5.6759948 L 19.672931,18.364029 c 0.544663,0.415576 1.32699,0.0249 1.32699,-0.662784 v 0.04815 c 0,0.482641 -0.274907,0.922642 -0.707296,1.13208 z"/>
 <path style="opacity:0.1;fill:#ffffff" d="m 2.8976266,5.5069823 c -0.1888294,0.00844 -0.3750012,0.081076 -0.5234327,0.216795 L 1.2726415,6.7306041 C 1.02263,6.959202 0.94818962,7.3013854 1.0421748,7.6016896 1.0846219,7.4644494 1.1584723,7.3349901 1.2726415,7.2305995 L 2.3741939,6.2237727 C 2.6710568,5.9523352 3.1180384,5.9320489 3.4376607,6.1759212 L 19.672864,18.864282 c 0.109386,0.08346 0.229309,0.125889 0.349606,0.148436 L 20.292975,18.88186 C 20.725364,18.672422 21,18.231698 21,17.749058 v -0.04785 c 0,0.687684 -0.782474,1.078656 -1.327136,0.66308 L 3.4376607,5.6759258 C 3.2778495,5.5539899 3.0864558,5.4985404 2.8976266,5.5069823 Z"/>
 <path style="fill:#24bfa5" d="m 16.174552,20.876181 c -0.476815,0.230638 -1.046539,0.133184 -1.420683,-0.243128 0.460965,0.463636 1.249226,0.135229 1.249226,-0.52049 V 1.8876295 c 0,-0.655719 -0.788261,-0.984111 -1.249226,-0.5204453 0.374144,-0.3763115 0.943868,-0.4738306 1.420683,-0.2431827 l 4.117605,1.9916617 C 20.724857,3.3249413 21,3.7651073 21,4.2479978 V 17.752289 c 0,0.482876 -0.275143,0.923032 -0.707843,1.13231 z"/>
 <path style="opacity:0.2;fill:#ffffff" d="m 15.614307,1.0001876 c -0.316205,0.00533 -0.626504,0.1319894 -0.860344,0.3671841 0.366634,-0.3687817 0.934846,-0.2325112 1.154287,0.1669907 0.09055,0.020538 0.18042,0.048156 0.266599,0.089843 l 4.117149,1.9911927 C 20.724699,3.8246761 21,4.2653097 21,4.7482003 V 4.2482048 C 21,3.7653141 20.724699,3.3246806 20.291998,3.1154026 L 16.174849,1.1242099 C 15.996044,1.0377169 15.80403,0.9969873 15.614307,1.0001876 Z m 0.388668,19.1121294 c 0,0.655719 -0.788047,0.984139 -1.249012,0.520503 0.306522,0.308298 0.743857,0.426114 1.154287,0.333005 0.05646,-0.102789 0.09473,-0.219327 0.09473,-0.353512 z"/>
</svg>

<svg xmlns="http://www.w3.org/2000/svg" width="22" height="22" version="1"><path style="opacity:.2" d="m20.293 3.619-4.119-1.994a1.24 1.24 0 0 0-1.42.242L1.272 14.081a.84.84 0 0 0 0 1.239l1.102 1.007a.83.83 0 0 0 1.064.047L19.673 4.136A.827.827 0 0 1 21 4.8v-.048c0-.483-.275-.923-.707-1.132z"/><path style="opacity:.2" d="M16.175 21.376a1.24 1.24 0 0 1-1.421-.243c.46.464 1.25.135 1.25-.52V2.388c0-.656-.79-.984-1.25-.52a1.24 1.24 0 0 1 1.42-.244l4.118 1.992c.433.209.708.65.708 1.132v13.504c0 .483-.275.923-.708 1.133z"/><path style="fill:#007c64" d="m20.293 3.119-4.119-1.995a1.24 1.24 0 0 0-1.42.243L1.272 13.581a.84.84 0 0 0 0 1.239l1.102 1.007a.83.83 0 0 0 1.064.047L19.673 3.636A.827.827 0 0 1 21 4.3v-.048c0-.483-.275-.923-.707-1.132z"/><path style="opacity:.1;fill:#fff" d="M15.614 1a1.242 1.242 0 0 0-.86.367L1.272 13.581a.837.837 0 0 0-.23.868.827.827 0 0 1 .23-.368L14.754 1.867a1.239 1.239 0 0 1 1.42-.243l3.847 1.863c.479-.09.979.262.979.812v-.048c0-.483-.275-.923-.707-1.133l-4.12-1.994A1.234 1.234 0 0 0 15.615 1z"/><path style="opacity:.2" d="M2.898 6.007a.829.829 0 0 0-.524.217L1.273 7.23a.841.841 0 0 0-.001 1.239l13.482 12.663c.46.463 1.249.135 1.249-.52v-4.617L3.438 6.176a.827.827 0 0 0-.54-.169z"/><path style="fill:#00a388" d="m20.293 18.881-4.119 1.995a1.24 1.24 0 0 1-1.42-.243L1.272 7.97a.84.84 0 0 1 0-1.239l1.102-1.006a.83.83 0 0 1 1.064-.048l16.235 12.688A.827.827 0 0 0 21 17.701v.048c0 .483-.275.923-.707 1.132z"/><path style="opacity:.1;fill:#fff" d="M2.898 5.507a.829.829 0 0 0-.524.217L1.273 6.73a.837.837 0 0 0-.23.87.827.827 0 0 1 .23-.37l1.101-1.007a.83.83 0 0 1 1.064-.048l16.235 12.688c.11.084.23.126.35.149l.27-.131c.432-.21.707-.65.707-1.133v-.048a.827.827 0 0 1-1.327.663L3.438 5.676a.827.827 0 0 0-.54-.169z"/><path style="fill:#24bfa5" d="M16.175 20.876a1.24 1.24 0 0 1-1.421-.243c.46.464 1.25.135 1.25-.52V1.888c0-.656-.79-.984-1.25-.52a1.24 1.24 0 0 1 1.42-.244l4.118 1.992c.433.209.708.65.708 1.132v13.504c0 .483-.275.923-.708 1.133z"/><path style="opacity:.2;fill:#fff" d="M15.614 1a1.242 1.242 0 0 0-.86.367c.367-.368.935-.232 1.154.167.09.02.18.049.267.09l4.117 1.991c.433.21.708.65.708 1.133v-.5c0-.483-.275-.923-.708-1.133l-4.117-1.99a1.238 1.238 0 0 0-.56-.125zm.389 19.112c0 .656-.788.984-1.249.52.306.31.744.427 1.154.334a.724.724 0 0 0 .095-.354z"/></svg>
